packages/components/src/components/icon/rebranding/ic-rebranding-smart-trader.svg

<svg viewBox="0 0 345 72" fill="none" xmlns="http://www.w3.org/2000/svg">
    <path
        d="M13.4998 0C6.04407 0 0 6.04407 0 13.4998V13.892L67.3066 3.26848C64.9425 1.23151 61.8647 0 58.4992 0H13.4998Z"
        fill="#2A3052" />
    <path
        d="M68.6959 4.65238L56.349 71.999H58.4992C65.9549 71.999 71.999 65.9549 71.999 58.4992V13.4998C71.999 10.1153 70.7535 7.02175 68.6959 4.65238Z"
        fill="#2A3052" />
    <path fill-rule="evenodd" clip-rule="evenodd"
        d="M56.349 71.999L13.4998 72C6.04407 72 0 65.9559 0 58.5002V13.892L67.3066 3.26848C67.8024 3.69566 68.2668 4.15827 68.6959 4.65238L56.349 71.999Z"
        fill="#384177" />
    <path
        d="M26.4628 43.1978C27.1558 43.1978 27.7228 43.1453 28.1638 43.0403C28.6258 42.9143 28.9933 42.7568 29.2663 42.5678C29.5393 42.3578 29.7283 42.1163 29.8333 41.8433C29.9383 41.5703 29.9908 41.2658 29.9908 40.9298C29.9908 40.2158 29.6548 39.6278 28.9828 39.1658C28.3108 38.6828 27.1558 38.1683 25.5178 37.6223C24.8038 37.3703 24.0898 37.0868 23.3758 36.7718C22.6618 36.4358 22.0213 36.0263 21.4543 35.5433C20.8873 35.0393 20.4253 34.4408 20.0683 33.7478C19.7113 33.0338 19.5328 32.1728 19.5328 31.1648C19.5328 30.1568 19.7218 29.2538 20.0998 28.4558C20.4778 27.6368 21.0133 26.9438 21.7063 26.3768C22.3993 25.8098 23.2393 25.3793 24.2263 25.0853C25.2133 24.7703 26.3263 24.6128 27.5653 24.6128C29.0353 24.6128 30.3058 24.7703 31.3768 25.0853C32.4478 25.4003 33.3298 25.7468 34.0228 26.1248L32.6053 29.9993C31.9963 29.6843 31.3138 29.4113 30.5578 29.1803C29.8228 28.9283 28.9303 28.8023 27.8803 28.8023C26.7043 28.8023 25.8538 28.9703 25.3288 29.3063C24.8248 29.6213 24.5728 30.1148 24.5728 30.7868C24.5728 31.1858 24.6673 31.5218 24.8563 31.7948C25.0453 32.0678 25.3078 32.3198 25.6438 32.5508C26.0008 32.7608 26.3998 32.9603 26.8408 33.1493C27.3028 33.3173 27.8068 33.4958 28.3528 33.6848C29.4868 34.1048 30.4738 34.5248 31.3138 34.9448C32.1538 35.3438 32.8468 35.8163 33.3928 36.3623C33.9598 36.9083 34.3798 37.5488 34.6528 38.2838C34.9258 39.0188 35.0623 39.9113 35.0623 40.9613C35.0623 42.9983 34.3483 44.5838 32.9203 45.7178C31.4923 46.8308 29.3398 47.3873 26.4628 47.3873C25.4968 47.3873 24.6253 47.3243 23.8483 47.1983C23.0713 47.0933 22.3783 46.9568 21.7693 46.7888C21.1813 46.6208 20.6668 46.4423 20.2258 46.2533C19.8058 46.0643 19.4488 45.8858 19.1548 45.7178L20.5408 41.8118C21.1918 42.1688 21.9898 42.4943 22.9348 42.7883C23.9008 43.0613 25.0768 43.1978 26.4628 43.1978Z"
        fill="white" />
    <path d="M52.8441 25.1168V29.3063H46.2606V46.9463H41.3466V29.3063H34.7631V25.1168H52.8441Z" fill="white" />
    <path
        d="M98.961 48.3795C100.001 48.3795 100.851 48.3008 101.513 48.1433C102.206 47.9543 102.757 47.718 103.166 47.4345C103.576 47.1195 103.859 46.7573 104.017 46.3478C104.174 45.9383 104.253 45.4815 104.253 44.9775C104.253 43.9065 103.749 43.0245 102.741 42.3315C101.733 41.607 100.001 40.8353 97.5435 40.0163C96.4725 39.6383 95.4015 39.213 94.3305 38.7405C93.2595 38.2365 92.2988 37.6223 91.4483 36.8978C90.5978 36.1418 89.9048 35.244 89.3693 34.2045C88.8338 33.1335 88.566 31.842 88.566 30.33C88.566 28.818 88.8495 27.4635 89.4165 26.2665C89.9835 25.038 90.7868 23.9985 91.8263 23.148C92.8658 22.2975 94.1258 21.6517 95.6063 21.2107C97.0868 20.7382 98.7563 20.502 100.615 20.502C102.82 20.502 104.726 20.7382 106.332 21.2107C107.939 21.6832 109.262 22.203 110.301 22.77L108.175 28.5818C107.261 28.1093 106.238 27.6998 105.104 27.3533C104.001 26.9753 102.662 26.7863 101.087 26.7863C99.3233 26.7863 98.0475 27.0383 97.26 27.5423C96.504 28.0148 96.126 28.755 96.126 29.763C96.126 30.3615 96.2678 30.8655 96.5513 31.275C96.8348 31.6845 97.2285 32.0625 97.7325 32.409C98.268 32.724 98.8665 33.0233 99.528 33.3068C100.221 33.5588 100.977 33.8265 101.796 34.11C103.497 34.74 104.978 35.37 106.238 36C107.498 36.5985 108.537 37.3073 109.356 38.1263C110.207 38.9453 110.837 39.906 111.246 41.0085C111.656 42.111 111.86 43.4498 111.86 45.0248C111.86 48.0803 110.789 50.4585 108.647 52.1595C106.505 53.829 103.277 54.6638 98.961 54.6638C97.512 54.6638 96.2048 54.5693 95.0393 54.3803C93.8738 54.2228 92.8343 54.018 91.9208 53.766C91.0388 53.514 90.267 53.2463 89.6055 52.9628C88.9755 52.6793 88.44 52.4115 87.999 52.1595L90.078 46.3005C91.0545 46.836 92.2515 47.3243 93.669 47.7653C95.118 48.1748 96.882 48.3795 98.961 48.3795Z"
        fill="currentColor" />
    <path
        d="M128.352 40.8195C128.352 38.5515 128.053 36.945 127.454 36C126.887 35.055 125.895 34.5825 124.478 34.5825C124.037 34.5825 123.58 34.614 123.107 34.677C122.635 34.7085 122.178 34.7558 121.737 34.8188V54.0023H114.697V29.9993C115.295 29.8418 115.988 29.6843 116.776 29.5268C117.595 29.3378 118.445 29.1803 119.327 29.0543C120.241 28.8968 121.17 28.7865 122.115 28.7235C123.06 28.629 123.989 28.5818 124.903 28.5818C126.698 28.5818 128.147 28.818 129.25 29.2905C130.384 29.7315 131.313 30.267 132.038 30.897C133.046 30.1725 134.195 29.6055 135.487 29.196C136.81 28.7865 138.023 28.5818 139.125 28.5818C141.11 28.5818 142.732 28.8653 143.992 29.4323C145.283 29.9678 146.307 30.7395 147.063 31.7475C147.819 32.7555 148.339 33.9525 148.622 35.3385C148.906 36.7245 149.048 38.268 149.048 39.969V54.0023H142.007V40.8195C142.007 38.5515 141.708 36.945 141.11 36C140.543 35.055 139.55 34.5825 138.133 34.5825C137.755 34.5825 137.219 34.677 136.526 34.866C135.865 35.055 135.314 35.2913 134.873 35.5748C135.093 36.2993 135.235 37.071 135.298 37.89C135.361 38.6775 135.392 39.528 135.392 40.4415V54.0023H128.352V40.8195Z"
        fill="currentColor" />
    <path
        d="M162.575 49.0883C163.268 49.0883 163.93 49.0725 164.56 49.041C165.19 49.0095 165.694 48.9623 166.072 48.8993V43.56C165.788 43.497 165.363 43.434 164.796 43.371C164.229 43.308 163.709 43.2765 163.237 43.2765C162.575 43.2765 161.945 43.3238 161.347 43.4183C160.78 43.4813 160.276 43.623 159.835 43.8435C159.394 44.064 159.047 44.3633 158.795 44.7413C158.543 45.1193 158.417 45.5918 158.417 46.1588C158.417 47.2613 158.78 48.033 159.504 48.474C160.26 48.8835 161.284 49.0883 162.575 49.0883ZM162.008 28.4873C164.087 28.4873 165.82 28.7235 167.206 29.196C168.592 29.6685 169.694 30.3458 170.513 31.2278C171.364 32.1098 171.962 33.1808 172.309 34.4408C172.655 35.7008 172.829 37.1025 172.829 38.646V53.2935C171.821 53.514 170.419 53.766 168.623 54.0495C166.828 54.3645 164.654 54.522 162.103 54.522C160.496 54.522 159.032 54.3803 157.709 54.0968C156.417 53.8133 155.299 53.3565 154.354 52.7265C153.409 52.065 152.684 51.2145 152.18 50.175C151.676 49.1355 151.424 47.8598 151.424 46.3478C151.424 44.8988 151.708 43.6703 152.275 42.6623C152.873 41.6543 153.661 40.851 154.637 40.2525C155.614 39.654 156.732 39.2288 157.992 38.9768C159.252 38.6933 160.559 38.5515 161.914 38.5515C162.827 38.5515 163.631 38.5988 164.324 38.6933C165.048 38.7563 165.631 38.8508 166.072 38.9768V38.3153C166.072 37.1183 165.71 36.1575 164.985 35.433C164.261 34.7085 163.001 34.3463 161.205 34.3463C160.008 34.3463 158.827 34.4408 157.661 34.6298C156.496 34.7873 155.488 35.0235 154.637 35.3385L153.74 29.6685C154.149 29.5425 154.653 29.4165 155.252 29.2905C155.882 29.133 156.559 29.007 157.283 28.9125C158.008 28.7865 158.764 28.692 159.551 28.629C160.37 28.5345 161.189 28.4873 162.008 28.4873Z"
        fill="currentColor" />
    <path
        d="M191.811 35.3858C191.181 35.2283 190.44 35.0708 189.59 34.9133C188.739 34.7243 187.826 34.6298 186.849 34.6298C186.408 34.6298 185.873 34.677 185.243 34.7715C184.644 34.8345 184.188 34.9133 183.873 35.0078V54.0023H176.832V30.4718C178.092 30.0308 179.573 29.6213 181.274 29.2433C183.006 28.8338 184.928 28.629 187.038 28.629C187.416 28.629 187.873 28.6605 188.409 28.7235C188.944 28.755 189.48 28.818 190.015 28.9125C190.551 28.9755 191.086 29.07 191.622 29.196C192.157 29.2905 192.614 29.4165 192.992 29.574L191.811 35.3858Z"
        fill="currentColor" />
    <path
        d="M194.167 22.959L201.208 21.825V29.1488H209.665V35.0078H201.208V43.749C201.208 45.2295 201.46 46.4108 201.964 47.2928C202.499 48.1748 203.554 48.6158 205.129 48.6158C205.885 48.6158 206.657 48.5528 207.445 48.4268C208.264 48.2693 209.004 48.0645 209.665 47.8125L210.658 53.2935C209.807 53.64 208.862 53.9393 207.823 54.1913C206.783 54.4433 205.507 54.5693 203.995 54.5693C202.074 54.5693 200.483 54.3173 199.223 53.8133C197.963 53.2778 196.955 52.5533 196.199 51.6398C195.443 50.6948 194.908 49.5608 194.593 48.2378C194.309 46.9148 194.167 45.45 194.167 43.8435V22.959Z"
        fill="currentColor" />
    <path d="M237.795 21.258V27.5423H227.92V54.0023H220.549V27.5423H210.673V21.258H237.795Z" fill="currentColor" />
    <path
        d="M251.399 35.3858C250.769 35.2283 250.029 35.0708 249.179 34.9133C248.328 34.7243 247.415 34.6298 246.438 34.6298C245.997 34.6298 245.462 34.677 244.832 34.7715C244.233 34.8345 243.776 34.9133 243.461 35.0078V54.0023H236.421V30.4718C237.681 30.0308 239.162 29.6213 240.863 29.2433C242.595 28.8338 244.517 28.629 246.627 28.629C247.005 28.629 247.462 28.6605 247.997 28.7235C248.533 28.755 249.068 28.818 249.604 28.9125C250.139 28.9755 250.675 29.07 251.21 29.196C251.746 29.2905 252.203 29.4165 252.581 29.574L251.399 35.3858Z"
        fill="currentColor" />
    <path
        d="M263.028 49.0883C263.721 49.0883 264.382 49.0725 265.012 49.041C265.642 49.0095 266.146 48.9623 266.524 48.8993V43.56C266.241 43.497 265.816 43.434 265.249 43.371C264.682 43.308 264.162 43.2765 263.689 43.2765C263.028 43.2765 262.398 43.3238 261.799 43.4183C261.232 43.4813 260.728 43.623 260.287 43.8435C259.846 44.064 259.5 44.3633 259.248 44.7413C258.996 45.1193 258.87 45.5918 258.87 46.1588C258.87 47.2613 259.232 48.033 259.957 48.474C260.713 48.8835 261.736 49.0883 263.028 49.0883ZM262.461 28.4873C264.54 28.4873 266.272 28.7235 267.658 29.196C269.044 29.6685 270.147 30.3458 270.966 31.2278C271.816 32.1098 272.415 33.1808 272.761 34.4408C273.108 35.7008 273.281 37.1025 273.281 38.646V53.2935C272.273 53.514 270.871 53.766 269.076 54.0495C267.28 54.3645 265.107 54.522 262.555 54.522C260.949 54.522 259.484 54.3803 258.161 54.0968C256.87 53.8133 255.751 53.3565 254.806 52.7265C253.861 52.065 253.137 51.2145 252.633 50.175C252.129 49.1355 251.877 47.8598 251.877 46.3478C251.877 44.8988 252.16 43.6703 252.727 42.6623C253.326 41.6543 254.113 40.851 255.09 40.2525C256.066 39.654 257.185 39.2288 258.445 38.9768C259.705 38.6933 261.012 38.5515 262.366 38.5515C263.28 38.5515 264.083 38.5988 264.776 38.6933C265.501 38.7563 266.083 38.8508 266.524 38.9768V38.3153C266.524 37.1183 266.162 36.1575 265.438 35.433C264.713 34.7085 263.453 34.3463 261.658 34.3463C260.461 34.3463 259.279 34.4408 258.114 34.6298C256.948 34.7873 255.94 35.0235 255.09 35.3385L254.192 29.6685C254.602 29.5425 255.106 29.4165 255.704 29.2905C256.334 29.133 257.011 29.007 257.736 28.9125C258.46 28.7865 259.216 28.692 260.004 28.629C260.823 28.5345 261.642 28.4873 262.461 28.4873Z"
        fill="currentColor" />
    <path
        d="M283.286 41.3865C283.286 43.56 283.774 45.3083 284.75 46.6313C285.727 47.9543 287.176 48.6158 289.097 48.6158C289.727 48.6158 290.31 48.6 290.846 48.5685C291.381 48.5055 291.822 48.4425 292.169 48.3795V35.5748C291.728 35.2913 291.145 35.055 290.42 34.866C289.727 34.677 289.019 34.5825 288.294 34.5825C284.955 34.5825 283.286 36.8505 283.286 41.3865ZM299.209 53.199C298.579 53.388 297.854 53.577 297.035 53.766C296.216 53.9235 295.35 54.0653 294.437 54.1913C293.555 54.3173 292.641 54.4118 291.696 54.4748C290.783 54.5693 289.901 54.6165 289.05 54.6165C287.003 54.6165 285.176 54.3173 283.569 53.7188C281.963 53.1203 280.608 52.2698 279.506 51.1673C278.403 50.0333 277.553 48.6788 276.954 47.1038C276.387 45.4973 276.104 43.7018 276.104 41.7173C276.104 39.7013 276.356 37.89 276.86 36.2835C277.364 34.6455 278.088 33.2595 279.033 32.1255C279.978 30.9915 281.128 30.1253 282.482 29.5268C283.868 28.9283 285.443 28.629 287.207 28.629C288.184 28.629 289.05 28.7235 289.806 28.9125C290.594 29.1015 291.381 29.3693 292.169 29.7158V18.4702L299.209 17.3362V53.199Z"
        fill="currentColor" />
    <path
        d="M302.257 41.7645C302.257 39.5595 302.588 37.638 303.25 36C303.943 34.3305 304.84 32.9445 305.943 31.842C307.045 30.7395 308.305 29.9048 309.723 29.3378C311.172 28.7708 312.652 28.4873 314.164 28.4873C317.692 28.4873 320.48 29.574 322.528 31.7475C324.575 33.8895 325.599 37.0553 325.599 41.2448C325.599 41.6543 325.583 42.111 325.552 42.615C325.52 43.0875 325.489 43.5128 325.457 43.8908H309.487C309.644 45.3398 310.321 46.4895 311.518 47.34C312.715 48.1905 314.322 48.6158 316.338 48.6158C317.629 48.6158 318.889 48.5055 320.118 48.285C321.378 48.033 322.402 47.7338 323.189 47.3873L324.134 53.1045C323.756 53.2935 323.252 53.4825 322.622 53.6715C321.992 53.8605 321.283 54.018 320.496 54.144C319.74 54.3015 318.921 54.4275 318.039 54.522C317.157 54.6165 316.275 54.6638 315.393 54.6638C313.156 54.6638 311.203 54.333 309.534 53.6715C307.896 53.01 306.526 52.1123 305.423 50.9783C304.352 49.8128 303.549 48.4425 303.013 46.8675C302.509 45.2925 302.257 43.5915 302.257 41.7645ZM318.795 39.0713C318.763 38.4728 318.653 37.89 318.464 37.323C318.307 36.756 318.039 36.252 317.661 35.811C317.314 35.37 316.858 35.0078 316.291 34.7243C315.755 34.4408 315.078 34.299 314.259 34.299C313.471 34.299 312.794 34.4408 312.227 34.7243C311.66 34.9763 311.188 35.3228 310.81 35.7638C310.432 36.2048 310.132 36.7245 309.912 37.323C309.723 37.89 309.581 38.4728 309.487 39.0713H318.795Z"
        fill="currentColor" />
    <path
        d="M343.648 35.3858C343.018 35.2283 342.277 35.0708 341.427 34.9133C340.576 34.7243 339.663 34.6298 338.686 34.6298C338.245 34.6298 337.71 34.677 337.08 34.7715C336.481 34.8345 336.025 34.9133 335.71 35.0078V54.0023H328.669V30.4718C329.929 30.0308 331.41 29.6213 333.111 29.2433C334.843 28.8338 336.765 28.629 338.875 28.629C339.253 28.629 339.71 28.6605 340.246 28.7235C340.781 28.755 341.317 28.818 341.852 28.9125C342.388 28.9755 342.923 29.07 343.459 29.196C343.994 29.2905 344.451 29.4165 344.829 29.574L343.648 35.3858Z"
        fill="currentColor" />
</svg>

<svg xmlns="http://www.w3.org/2000/svg" fill="none" viewBox="0 0 345 72">
    <path fill="#2A3052"
        d="M13.5 0C6.044 0 0 6.044 0 13.5v.392L67.307 3.268A13.447 13.447 0 0 0 58.499 0h-45ZM68.696 4.652 56.349 72h2.15c7.456 0 13.5-6.044 13.5-13.5v-45c0-3.384-1.245-6.477-3.303-8.847Z" />
    <path fill="#384177" fill-rule="evenodd"
        d="M56.349 71.999 13.499 72C6.045 72 0 65.956 0 58.5V13.892L67.307 3.268c.495.428.96.89 1.389 1.384L56.349 72Z"
        clip-rule="evenodd" />
    <path fill="#fff"
        d="M26.463 43.198c.693 0 1.26-.053 1.7-.158.463-.126.83-.283 1.103-.472.273-.21.462-.452.567-.725.105-.273.158-.577.158-.913 0-.714-.336-1.302-1.008-1.764-.672-.483-1.827-.998-3.465-1.544a30.247 30.247 0 0 1-2.142-.85 8.576 8.576 0 0 1-1.922-1.229 6.14 6.14 0 0 1-1.386-1.795c-.357-.714-.535-1.575-.535-2.583 0-1.008.189-1.911.567-2.71a5.78 5.78 0 0 1 1.606-2.078c.693-.567 1.533-.998 2.52-1.292.987-.315 2.1-.472 3.34-.472 1.47 0 2.74.157 3.81.472 1.072.315 1.954.662 2.647 1.04l-1.418 3.874a12.235 12.235 0 0 0-2.047-.819c-.735-.252-1.628-.378-2.678-.378-1.176 0-2.026.168-2.551.504-.504.315-.756.809-.756 1.48 0 .4.094.736.283 1.009.19.273.452.525.788.756.357.21.756.41 1.197.598.462.168.966.347 1.512.536 1.134.42 2.12.84 2.96 1.26.84.399 1.534.871 2.08 1.417a5.101 5.101 0 0 1 1.26 1.922c.273.735.41 1.627.41 2.677 0 2.037-.715 3.623-2.143 4.757-1.428 1.113-3.58 1.67-6.457 1.67-.966 0-1.838-.064-2.615-.19a15.846 15.846 0 0 1-2.079-.41 13.045 13.045 0 0 1-1.543-.535c-.42-.189-.777-.367-1.071-.535l1.386-3.906c.65.357 1.449.682 2.394.976.966.273 2.142.41 3.528.41ZM52.844 25.117v4.19h-6.583v17.64h-4.914v-17.64h-6.584v-4.19h18.081Z" />
    <path fill="var(--text-general)"
        d="M98.961 48.38c1.04 0 1.89-.08 2.552-.237.693-.189 1.244-.425 1.653-.709.41-.314.693-.677.851-1.086.157-.41.236-.867.236-1.37 0-1.072-.504-1.953-1.512-2.647-1.008-.724-2.74-1.496-5.198-2.315a45.37 45.37 0 0 1-3.213-1.276 12.863 12.863 0 0 1-2.882-1.842 9.21 9.21 0 0 1-2.079-2.694c-.535-1.07-.803-2.362-.803-3.874s.284-2.866.85-4.063a8.67 8.67 0 0 1 2.41-3.119c1.04-.85 2.3-1.496 3.78-1.937 1.48-.473 3.15-.709 5.009-.709 2.205 0 4.111.236 5.717.709 1.607.472 2.93.992 3.969 1.559l-2.126 5.812a18.367 18.367 0 0 0-3.071-1.229c-1.103-.378-2.442-.567-4.017-.567-1.764 0-3.04.252-3.827.756-.756.473-1.134 1.213-1.134 2.221 0 .598.142 1.102.425 1.512.284.41.677.788 1.181 1.134.536.315 1.135.614 1.796.898.693.252 1.449.52 2.268.803 1.701.63 3.182 1.26 4.442 1.89 1.26.599 2.299 1.307 3.118 2.126a7.64 7.64 0 0 1 1.89 2.883c.41 1.102.614 2.44.614 4.016 0 3.055-1.071 5.434-3.213 7.135-2.142 1.669-5.37 2.504-9.686 2.504-1.449 0-2.756-.095-3.922-.284a23.769 23.769 0 0 1-3.118-.614 19.568 19.568 0 0 1-2.316-.803A18.982 18.982 0 0 1 88 52.16l2.079-5.86c.977.536 2.173 1.024 3.591 1.465 1.449.41 3.213.614 5.292.614ZM128.352 40.82c0-2.269-.299-3.875-.898-4.82-.567-.945-1.559-1.417-2.976-1.417-.441 0-.898.031-1.371.094-.472.032-.929.079-1.37.142v19.183h-7.04V30a35.838 35.838 0 0 1 2.079-.472 30.566 30.566 0 0 1 2.551-.473 26.967 26.967 0 0 1 2.788-.33 28.006 28.006 0 0 1 2.788-.142c1.795 0 3.244.236 4.347.709 1.134.44 2.063.976 2.788 1.606 1.008-.724 2.157-1.291 3.449-1.701 1.323-.41 2.536-.614 3.638-.614 1.985 0 3.607.283 4.867.85 1.291.536 2.315 1.308 3.071 2.316.756 1.007 1.276 2.204 1.559 3.59.284 1.386.426 2.93.426 4.631v14.033h-7.041V40.82c0-2.268-.299-3.874-.897-4.819-.567-.945-1.56-1.417-2.977-1.417-.378 0-.914.094-1.607.283-.661.189-1.212.425-1.653.709.22.724.362 1.496.425 2.315.063.788.094 1.638.094 2.551v13.561h-7.04V40.82ZM162.575 49.088c.693 0 1.355-.016 1.985-.047a13.81 13.81 0 0 0 1.512-.142V43.56a13.03 13.03 0 0 0-1.276-.189 14.21 14.21 0 0 0-1.559-.095c-.662 0-1.292.048-1.89.142a4.456 4.456 0 0 0-1.512.425c-.441.221-.788.52-1.04.898s-.378.85-.378 1.418c0 1.102.363 1.874 1.087 2.315.756.41 1.78.614 3.071.614Zm-.567-20.6c2.079 0 3.812.236 5.198.708 1.386.473 2.488 1.15 3.307 2.032.851.882 1.449 1.953 1.796 3.213.346 1.26.52 2.661.52 4.205v14.648c-1.008.22-2.41.472-4.206.756-1.795.315-3.969.472-6.52.472-1.607 0-3.071-.142-4.394-.425-1.292-.284-2.41-.74-3.355-1.37a6.557 6.557 0 0 1-2.174-2.552c-.504-1.04-.756-2.315-.756-3.827 0-1.45.284-2.678.851-3.686a6.923 6.923 0 0 1 2.362-2.41c.977-.598 2.095-1.023 3.355-1.275a17.813 17.813 0 0 1 3.922-.425c.913 0 1.717.047 2.41.141.724.063 1.307.158 1.748.284v-.662c0-1.197-.362-2.157-1.087-2.882-.724-.724-1.984-1.087-3.78-1.087a22.11 22.11 0 0 0-3.544.284c-1.165.157-2.173.393-3.024.709l-.897-5.67c.409-.127.913-.253 1.512-.378.63-.158 1.307-.284 2.031-.378a24.81 24.81 0 0 1 2.268-.284 21.418 21.418 0 0 1 2.457-.142ZM191.811 35.386a37.363 37.363 0 0 0-2.221-.473 12.623 12.623 0 0 0-2.741-.283c-.441 0-.976.047-1.606.142-.599.063-1.055.141-1.37.236v18.994h-7.041v-23.53c1.26-.441 2.741-.85 4.442-1.229 1.732-.41 3.654-.614 5.764-.614.378 0 .835.031 1.371.095.535.031 1.071.094 1.606.189.536.063 1.071.157 1.607.283.535.095.992.22 1.37.378l-1.181 5.812ZM194.167 22.959l7.041-1.134v7.324h8.457v5.859h-8.457v8.741c0 1.48.252 2.662.756 3.544.535.882 1.59 1.323 3.165 1.323.756 0 1.528-.063 2.316-.19a13.279 13.279 0 0 0 2.22-.614l.993 5.482c-.851.346-1.796.645-2.835.897-1.04.252-2.316.378-3.828.378-1.921 0-3.512-.252-4.772-.756-1.26-.535-2.268-1.26-3.024-2.173-.756-.945-1.291-2.08-1.606-3.402-.284-1.323-.426-2.788-.426-4.395V22.96ZM237.795 21.258v6.284h-9.875v26.46h-7.371v-26.46h-9.876v-6.284h27.122Z" />
    <path fill="var(--text-general)"
        d="M251.399 35.386c-.63-.158-1.37-.315-2.22-.473a12.623 12.623 0 0 0-2.741-.283c-.441 0-.976.047-1.606.142-.599.063-1.056.141-1.371.236v18.994h-7.04v-23.53c1.26-.441 2.741-.85 4.442-1.229 1.732-.41 3.654-.614 5.764-.614.378 0 .835.031 1.37.095a13.96 13.96 0 0 1 1.607.189 14.3 14.3 0 0 1 1.606.283c.536.095.993.22 1.371.378l-1.182 5.812ZM263.028 49.088c.693 0 1.354-.016 1.984-.047a13.81 13.81 0 0 0 1.512-.142V43.56a12.951 12.951 0 0 0-1.275-.189 14.213 14.213 0 0 0-1.56-.095c-.661 0-1.291.048-1.89.142a4.456 4.456 0 0 0-1.512.425c-.441.221-.787.52-1.039.898-.252.378-.378.85-.378 1.418 0 1.102.362 1.874 1.087 2.315.756.41 1.779.614 3.071.614Zm-.567-20.6c2.079 0 3.811.236 5.197.708 1.386.473 2.489 1.15 3.308 2.032.85.882 1.449 1.953 1.795 3.213.347 1.26.52 2.661.52 4.205v14.648c-1.008.22-2.41.472-4.205.756-1.796.315-3.969.472-6.521.472-1.606 0-3.071-.142-4.394-.425-1.291-.284-2.41-.74-3.355-1.37a6.555 6.555 0 0 1-2.173-2.552c-.504-1.04-.756-2.315-.756-3.827 0-1.45.283-2.678.85-3.686a6.926 6.926 0 0 1 2.363-2.41c.976-.598 2.095-1.023 3.355-1.275a17.81 17.81 0 0 1 3.921-.425c.914 0 1.717.047 2.41.141.725.063 1.307.158 1.748.284v-.662c0-1.197-.362-2.157-1.086-2.882-.725-.724-1.985-1.087-3.78-1.087-1.197 0-2.379.095-3.544.284-1.166.157-2.174.393-3.024.709l-.898-5.67c.41-.127.914-.253 1.512-.378.63-.158 1.307-.284 2.032-.378.724-.127 1.48-.221 2.268-.284a21.418 21.418 0 0 1 2.457-.142ZM283.286 41.386c0 2.174.488 3.922 1.464 5.245.977 1.323 2.426 1.985 4.347 1.985.63 0 1.213-.016 1.749-.047.535-.064.976-.127 1.323-.19V35.575c-.441-.284-1.024-.52-1.749-.709a8.04 8.04 0 0 0-2.126-.283c-3.339 0-5.008 2.267-5.008 6.803ZM299.209 53.2c-.63.189-1.355.378-2.174.567-.819.157-1.685.3-2.598.425a36.61 36.61 0 0 1-2.741.284c-.913.094-1.795.142-2.646.142-2.047 0-3.874-.3-5.481-.898-1.606-.599-2.961-1.45-4.063-2.552-1.103-1.134-1.953-2.488-2.552-4.063-.567-1.607-.85-3.402-.85-5.387 0-2.016.252-3.827.756-5.434.504-1.638 1.228-3.023 2.173-4.157a9.352 9.352 0 0 1 3.449-2.6c1.386-.598 2.961-.897 4.725-.897.977 0 1.843.095 2.599.284.788.189 1.575.456 2.363.803V18.47l7.04-1.134V53.2ZM302.257 41.764c0-2.205.331-4.126.993-5.764.693-1.67 1.59-3.056 2.693-4.158a11.153 11.153 0 0 1 3.78-2.504 12.09 12.09 0 0 1 4.441-.85c3.528 0 6.316 1.086 8.364 3.26 2.047 2.141 3.071 5.307 3.071 9.497 0 .41-.016.866-.047 1.37a77.51 77.51 0 0 1-.095 1.276h-15.97c.157 1.449.834 2.599 2.031 3.449 1.197.85 2.804 1.276 4.82 1.276 1.291 0 2.551-.11 3.78-.331 1.26-.252 2.284-.551 3.071-.898l.945 5.718c-.378.189-.882.378-1.512.567-.63.189-1.339.346-2.126.472-.756.157-1.575.284-2.457.378a24.82 24.82 0 0 1-2.646.142c-2.237 0-4.19-.331-5.859-.992-1.638-.662-3.008-1.56-4.111-2.694-1.071-1.165-1.874-2.535-2.41-4.11-.504-1.576-.756-3.276-.756-5.104Zm16.538-2.693a6.621 6.621 0 0 0-.331-1.748 3.89 3.89 0 0 0-.803-1.512c-.347-.441-.803-.803-1.37-1.087-.536-.283-1.213-.425-2.032-.425-.788 0-1.465.142-2.032.425a3.945 3.945 0 0 0-1.417 1.04c-.378.44-.678.96-.898 1.559-.189.567-.331 1.15-.425 1.748h9.308ZM343.648 35.386a37.363 37.363 0 0 0-2.221-.473 12.623 12.623 0 0 0-2.741-.283c-.441 0-.976.047-1.606.142-.599.063-1.055.141-1.37.236v18.994h-7.041v-23.53c1.26-.441 2.741-.85 4.442-1.229 1.732-.41 3.654-.614 5.764-.614.378 0 .835.031 1.371.095.535.031 1.071.094 1.606.189.536.063 1.071.157 1.607.283.535.095.992.22 1.37.378l-1.181 5.812Z" />
</svg>
